X:211
T: MIN VATER ISCHT A APPAZELLER
N: B0698
O: Europa, Mitteleuropa, Schweizland
R: Scherz - Lied
M: 2/4
L: 1/16
K: A
C2 | D2F2C2E2 | B,2B,2E4 |
cEd2BEc2 | AGAcE2
C2 | D2F2C2E2 | B,2B,2E4 |
cEEdBEEc | A6

@@@ Tune index: 2429
